usr/share/icons/biglinux-icons-material-dark/16/actions/16/acrobat.svg

<svg xmlns="http://www.w3.org/2000/svg" viewBox="0 0 16 16">
  <defs id="defs3051">
    <style type="text/css" id="current-color-scheme">
      .ColorScheme-Text {
        color:#dedede;
      }
      .ColorScheme-NegativeText {
        color:#da4453;
      }
      </style>
  </defs>
  <path
     style="fill:currentColor;fill-opacity:1;stroke:none" 
     class="ColorScheme-NegativeText"
     d="m3 2v7l2-2 2 2v-7zm5 0v1h4v7h-3v3h-5v-3h-1v4h7l3-3v-9z"
      />
</svg>

<!DOCTYPE svg>
<svg version="1.1" viewBox="0 0 16 16" xmlns="http://www.w3.org/2000/svg">
    <path d="M 3 2 L 3 9 L 5 7 L 7 9 L 7 2 L 3 2 Z M 8 2 L 8 3 L 9 3 L 9 6 L 12 6 L 12 13 L 4 13 L 4 10 L 3 10 L 3 14 L 13 14 L 13 5 L 10 2 L 8 2 Z" fill="#d24d57"/>
</svg>
